Newaita-dark/.places-manjaro/128/folder-videos.svg

<?xml version="1.0" encoding="UTF-8"?>
<svg xmlns="http://www.w3.org/2000/svg" xmlns:xlink="http://www.w3.org/1999/xlink" width="128pt" height="128pt" viewBox="0 0 128 128" version="1.1">
<defs>
<linearGradient id="linear0" gradientUnits="userSpaceOnUse" x1="254" y1="233.5" x2="254" y2="254.666672" gradientTransform="matrix(0.250024,0,0,0.250024,-0.0000152602,53.75514)">
<stop offset="0" style="stop-color:rgb(0%,0%,0%);stop-opacity:0.27451;"/>
<stop offset="1" style="stop-color:rgb(0%,0%,0%);stop-opacity:0;"/>
</linearGradient>
<radialGradient id="radial0" gradientUnits="userSpaceOnUse" cx="450.908936" cy="189.579361" fx="450.908936" fy="189.579361" r="21.166656" gradientTransform="matrix(0.000000696681,-0.31253,-0.562554,-0.000000406154,216.460851,254.38133)">
<stop offset="0" style="stop-color:rgb(0%,0%,0%);stop-opacity:0.313725;"/>
<stop offset="0.222222" style="stop-color:rgb(0%,0%,0%);stop-opacity:0.27451;"/>
<stop offset="1" style="stop-color:rgb(0%,0%,0%);stop-opacity:0;"/>
</radialGradient>
<radialGradient id="radial1" gradientUnits="userSpaceOnUse" cx="450.908936" cy="189.579361" fx="450.908936" fy="189.579361" r="21.166656" gradientTransform="matrix(-0.000000696681,0.31253,0.562554,0.000000406154,-89.448711,-30.109915)">
<stop offset="0" style="stop-color:rgb(0%,0%,0%);stop-opacity:0.313725;"/>
<stop offset="0.222222" style="stop-color:rgb(0%,0%,0%);stop-opacity:0.27451;"/>
<stop offset="1" style="stop-color:rgb(0%,0%,0%);stop-opacity:0;"/>
</radialGradient>
<radialGradient id="radial2" gradientUnits="userSpaceOnUse" cx="450.908936" cy="189.579361" fx="450.908936" fy="189.579361" r="21.166656" gradientTransform="matrix(-0.000000696681,-0.31253,0.562554,-0.000000406154,-89.448711,254.38133)">
<stop offset="0" style="stop-color:rgb(0%,0%,0%);stop-opacity:0.313725;"/>
<stop offset="0.222222" style="stop-color:rgb(0%,0%,0%);stop-opacity:0.27451;"/>
<stop offset="1" style="stop-color:rgb(0%,0%,0%);stop-opacity:0;"/>
</radialGradient>
<radialGradient id="radial3" gradientUnits="userSpaceOnUse" cx="450.908936" cy="189.579361" fx="450.908936" fy="189.579361" r="21.166656" gradientTransform="matrix(0.000000696681,0.31253,-0.562554,0.000000406154,216.460843,-30.109917)">
<stop offset="0" style="stop-color:rgb(0%,0%,0%);stop-opacity:0.313725;"/>
<stop offset="0.222222" style="stop-color:rgb(0%,0%,0%);stop-opacity:0.27451;"/>
<stop offset="1" style="stop-color:rgb(0%,0%,0%);stop-opacity:0;"/>
</radialGradient>
<linearGradient id="linear1" gradientUnits="userSpaceOnUse" x1="296.333344" y1="233.5" x2="296.333344" y2="-147.5" gradientTransform="matrix(0.250024,0,0,0.250024,0,53.755133)">
<stop offset="0" style="stop-color:rgb(25.882353%,25.882353%,25.882353%);stop-opacity:1;"/>
<stop offset="1" style="stop-color:rgb(38.039216%,38.039216%,38.039216%);stop-opacity:1;"/>
</linearGradient>
<linearGradient id="linear2" gradientUnits="userSpaceOnUse" x1="254" y1="-147.5" x2="254" y2="233.5" gradientTransform="matrix(0.250024,0,0,0.250024,0,53.755132)">
<stop offset="0" style="stop-color:rgb(30.196078%,71.372549%,67.45098%);stop-opacity:1;"/>
<stop offset="1" style="stop-color:rgb(14.901961%,65.098039%,60.392157%);stop-opacity:1;"/>
</linearGradient>
<linearGradient id="linear3" gradientUnits="userSpaceOnUse" x1="254" y1="233.5" x2="254" y2="-52.25" gradientTransform="matrix(1,0,0,1,0.00000233333,0.00000146296)">
<stop offset="0" style="stop-color:rgb(25.882353%,25.882353%,25.882353%);stop-opacity:1;"/>
<stop offset="1" style="stop-color:rgb(38.039216%,38.039216%,38.039216%);stop-opacity:1;"/>
</linearGradient>
</defs>
<g id="surface1">
<path style=" stroke:none;fill-rule:nonzero;fill:url(#linear0);" d="M 15.875 112.136719 L 111.136719 112.136719 L 111.136719 117.429688 L 15.875 117.429688 Z M 15.875 112.136719 "/>
<path style=" stroke:none;fill-rule:nonzero;fill:url(#radial0);" d="M 111.136719 112.136719 L 121.71875 112.136719 L 121.71875 106.84375 L 111.136719 106.84375 Z M 111.136719 112.136719 "/>
<path style=" stroke:none;fill-rule:nonzero;fill:url(#radial1);" d="M 15.875 112.136719 L 5.292969 112.136719 L 5.292969 117.429688 L 15.875 117.429688 Z M 15.875 112.136719 "/>
<path style=" stroke:none;fill-rule:nonzero;fill:url(#radial2);" d="M 15.875 112.136719 L 5.292969 112.136719 L 5.292969 106.84375 L 15.875 106.84375 Z M 15.875 112.136719 "/>
<path style=" stroke:none;fill-rule:nonzero;fill:url(#radial3);" d="M 111.136719 112.136719 L 121.71875 112.136719 L 121.71875 117.429688 L 111.136719 117.429688 Z M 111.136719 112.136719 "/>
<path style=" stroke:none;fill-rule:nonzero;fill:url(#linear1);" d="M 29.105469 16.875 L 115.105469 16.875 C 118.027344 16.875 120.398438 19.246094 120.398438 22.167969 L 120.398438 42.015625 C 120.398438 44.9375 118.027344 47.304688 115.105469 47.304688 L 29.105469 47.304688 C 26.183594 47.304688 23.816406 44.9375 23.816406 42.015625 L 23.816406 22.167969 C 23.816406 19.246094 26.183594 16.875 29.105469 16.875 Z M 29.105469 16.875 "/>
<path style=" stroke:none;fill-rule:nonzero;fill:rgb(90.196079%,90.196079%,90.196079%);fill-opacity:0.588235;" d="M 29.105469 16.875 C 26.175781 16.875 23.816406 19.238281 23.816406 22.167969 L 23.816406 22.832031 C 23.816406 19.898438 26.175781 17.539062 29.105469 17.539062 L 115.105469 17.539062 C 118.035156 17.539062 120.398438 19.898438 120.398438 22.832031 L 120.398438 22.167969 C 120.398438 19.238281 118.035156 16.875 115.105469 16.875 Z M 29.105469 16.875 "/>
<path style=" stroke:none;fill-rule:nonzero;fill:rgb(12.941177%,12.941177%,12.941177%);fill-opacity:1;" d="M 29.105469 16.5 C 25.972656 16.5 23.441406 19.035156 23.441406 22.167969 L 23.441406 42.015625 C 23.441406 45.148438 25.972656 47.683594 29.105469 47.683594 L 115.105469 47.683594 C 118.238281 47.683594 120.773438 45.148438 120.773438 42.015625 L 120.773438 22.167969 C 120.773438 19.035156 118.238281 16.5 115.105469 16.5 Z M 29.105469 17.25 L 115.105469 17.25 C 117.835938 17.25 120.023438 19.4375 120.023438 22.167969 L 120.023438 42.015625 C 120.023438 44.746094 117.835938 46.933594 115.105469 46.933594 L 29.105469 46.933594 C 26.375 46.933594 24.191406 44.746094 24.191406 42.015625 L 24.191406 22.167969 C 24.191406 19.4375 26.375 17.25 29.105469 17.25 Z M 29.105469 17.25 "/>
<path style=" stroke:none;fill-rule:nonzero;fill:url(#linear2);" d="M 10.585938 27.460938 C 7.652344 27.460938 5.292969 29.820312 5.292969 32.753906 L 5.292969 106.84375 C 5.292969 109.773438 7.652344 112.136719 10.585938 112.136719 L 116.429688 112.136719 C 119.359375 112.136719 121.71875 109.773438 121.71875 106.84375 L 121.71875 40.691406 L 50.277344 40.691406 C 47.34375 40.691406 44.984375 38.332031 44.984375 35.398438 L 44.984375 27.460938 Z M 10.585938 27.460938 "/>
<path style=" stroke:none;fill-rule:nonzero;fill:rgb(0%,0%,0%);fill-opacity:0.196078;" d="M 10.585938 112.136719 C 7.652344 112.136719 5.292969 109.777344 5.292969 106.84375 L 5.292969 106.183594 C 5.292969 109.113281 7.652344 111.472656 10.585938 111.472656 L 116.429688 111.472656 C 119.359375 111.472656 121.71875 109.113281 121.71875 106.183594 L 121.71875 106.84375 C 121.71875 109.777344 119.359375 112.136719 116.429688 112.136719 Z M 10.585938 112.136719 "/>
<path style=" stroke:none;fill-rule:nonzero;fill:rgb(90.196079%,90.196079%,90.196079%);fill-opacity:0.937255;" d="M 10.585938 27.460938 C 7.652344 27.460938 5.292969 29.820312 5.292969 32.753906 L 5.292969 33.414062 C 5.292969 30.484375 7.652344 28.121094 10.585938 28.121094 L 44.984375 28.121094 L 44.984375 27.460938 Z M 10.585938 27.460938 "/>
<path style=" stroke:none;fill-rule:nonzero;fill:rgb(90.196079%,90.196079%,90.196079%);fill-opacity:0.937255;" d="M 49.945312 41.023438 C 47.011719 41.023438 44.652344 38.660156 44.652344 35.730469 L 44.652344 35.070312 C 44.652344 38 47.011719 40.367188 49.945312 40.359375 L 121.71875 40.359375 L 121.71875 41.023438 Z M 49.945312 41.023438 "/>
<path style=" stroke:none;fill-rule:nonzero;fill:rgb(12.941177%,12.941177%,12.941177%);fill-opacity:1;" d="M 10.585938 27.085938 C 7.453125 27.085938 4.917969 29.621094 4.917969 32.753906 L 4.917969 106.84375 C 4.917969 109.976562 7.453125 112.511719 10.585938 112.511719 L 116.429688 112.511719 C 119.5625 112.511719 122.09375 109.976562 122.09375 106.84375 L 122.09375 39.941406 L 50.277344 39.941406 C 47.546875 39.941406 45.359375 37.753906 45.359375 35.023438 L 45.359375 27.085938 Z M 10.585938 27.835938 L 44.609375 27.835938 L 44.609375 35.023438 C 44.609375 38.15625 47.140625 40.691406 50.277344 40.691406 L 121.34375 40.691406 L 121.34375 106.84375 C 121.34375 109.574219 119.160156 111.761719 116.429688 111.761719 L 10.585938 111.761719 C 7.855469 111.761719 5.667969 109.574219 5.667969 106.84375 L 5.667969 32.753906 C 5.667969 30.023438 7.855469 27.835938 10.585938 27.835938 Z M 10.585938 27.835938 "/>
<path style="fill-rule:nonzero;fill:url(#linear3);stroke-width:3;stroke-linecap:round;stroke-linejoin:round;stroke:rgb(12.941177%,12.941177%,12.941177%);stroke-opacity:1;stroke-miterlimit:4;" d="M 201.090172 -9.91021 C 195.121992 -10.082069 190.21621 -5.301275 190.21621 0.651281 L 190.21621 148.824631 C 190.21621 156.980103 199.059116 162.073366 206.120941 157.964384 L 333.108815 83.877709 C 340.108146 79.799973 340.108146 69.691563 333.108815 65.598204 L 206.120941 -8.488471 C 204.589838 -9.379011 202.855628 -9.86334 201.090172 -9.91021 Z M 201.090172 -9.91021 " transform="matrix(0.250024,0,0,0.250024,0,53.755133)"/>
</g>
</svg>

<svg xmlns="http://www.w3.org/2000/svg" width="128pt" height="128pt" viewBox="0 0 128 128"><defs><linearGradient id="a" gradientUnits="userSpaceOnUse" x1="254" y1="233.5" x2="254" y2="254.667" gradientTransform="matrix(.25002 0 0 .25002 0 53.755)"><stop offset="0" stop-opacity=".275"/><stop offset="1" stop-opacity="0"/></linearGradient><radialGradient id="b" gradientUnits="userSpaceOnUse" cx="450.909" cy="189.579" fx="450.909" fy="189.579" r="21.167" gradientTransform="matrix(0 -.31253 -.56255 0 216.46 254.381)"><stop offset="0" stop-opacity=".314"/><stop offset=".222" stop-opacity=".275"/><stop offset="1" stop-opacity="0"/></radialGradient><radialGradient id="c" gradientUnits="userSpaceOnUse" cx="450.909" cy="189.579" fx="450.909" fy="189.579" r="21.167" gradientTransform="matrix(0 .31253 .56255 0 -89.449 -30.11)"><stop offset="0" stop-opacity=".314"/><stop offset=".222" stop-opacity=".275"/><stop offset="1" stop-opacity="0"/></radialGradient><radialGradient id="d" gradientUnits="userSpaceOnUse" cx="450.909" cy="189.579" fx="450.909" fy="189.579" r="21.167" gradientTransform="matrix(0 -.31253 .56255 0 -89.449 254.381)"><stop offset="0" stop-opacity=".314"/><stop offset=".222" stop-opacity=".275"/><stop offset="1" stop-opacity="0"/></radialGradient><radialGradient id="e" gradientUnits="userSpaceOnUse" cx="450.909" cy="189.579" fx="450.909" fy="189.579" r="21.167" gradientTransform="matrix(0 .31253 -.56255 0 216.46 -30.11)"><stop offset="0" stop-opacity=".314"/><stop offset=".222" stop-opacity=".275"/><stop offset="1" stop-opacity="0"/></radialGradient><linearGradient id="f" gradientUnits="userSpaceOnUse" x1="296.333" y1="233.5" x2="296.333" y2="-147.5" gradientTransform="matrix(.25002 0 0 .25002 0 53.755)"><stop offset="0" stop-color="#424242"/><stop offset="1" stop-color="#616161"/></linearGradient><linearGradient id="g" gradientUnits="userSpaceOnUse" x1="254" y1="-147.5" x2="254" y2="233.5" gradientTransform="matrix(.25002 0 0 .25002 0 53.755)"><stop offset="0" stop-color="#4db6ac"/><stop offset="1" stop-color="#26a69a"/></linearGradient><linearGradient id="h" gradientUnits="userSpaceOnUse" x1="254" y1="233.5" x2="254" y2="-52.25"><stop offset="0" stop-color="#424242"/><stop offset="1" stop-color="#616161"/></linearGradient></defs><path d="M15.875 112.137h95.262v5.293H15.875zm0 0" fill="url(#a)"/><path d="M111.137 112.137h10.582v-5.293h-10.582zm0 0" fill="url(#b)"/><path d="M15.875 112.137H5.293v5.293h10.582zm0 0" fill="url(#c)"/><path d="M15.875 112.137H5.293v-5.293h10.582zm0 0" fill="url(#d)"/><path d="M111.137 112.137h10.582v5.293h-10.582zm0 0" fill="url(#e)"/><path d="M29.105 16.875h86a5.295 5.295 0 0 1 5.293 5.293v19.848a5.291 5.291 0 0 1-5.293 5.289h-86a5.288 5.288 0 0 1-5.289-5.29V22.169a5.291 5.291 0 0 1 5.29-5.293zm0 0" fill="url(#f)"/><path d="M29.105 16.875a5.281 5.281 0 0 0-5.289 5.293v.664a5.279 5.279 0 0 1 5.29-5.293h86c2.93 0 5.292 2.36 5.292 5.293v-.664a5.285 5.285 0 0 0-5.293-5.293zm0 0" fill="#e6e6e6" fill-opacity=".588"/><path d="M29.105 16.5a5.661 5.661 0 0 0-5.664 5.668v19.848a5.661 5.661 0 0 0 5.664 5.668h86a5.665 5.665 0 0 0 5.668-5.668V22.168a5.665 5.665 0 0 0-5.668-5.668zm0 .75h86a4.9 4.9 0 0 1 4.918 4.918v19.848a4.9 4.9 0 0 1-4.918 4.918h-86a4.896 4.896 0 0 1-4.914-4.918V22.168a4.896 4.896 0 0 1 4.914-4.918zm0 0" fill="#212121"/><path d="M10.586 27.46a5.28 5.28 0 0 0-5.293 5.294v74.09c0 2.93 2.36 5.293 5.293 5.293H116.43c2.93 0 5.289-2.364 5.289-5.293V40.69H50.277a5.28 5.28 0 0 1-5.293-5.293v-7.937zm0 0" fill="url(#g)"/><path d="M10.586 112.137a5.28 5.28 0 0 1-5.293-5.293v-.66c0 2.93 2.36 5.289 5.293 5.289H116.43c2.93 0 5.289-2.36 5.289-5.29v.66a5.279 5.279 0 0 1-5.29 5.294zm0 0" fill-opacity=".196"/><path d="M10.586 27.46a5.28 5.28 0 0 0-5.293 5.294v.66c0-2.93 2.36-5.293 5.293-5.293h34.398v-.66zm0 0M49.945 41.023a5.282 5.282 0 0 1-5.293-5.293v-.66c0 2.93 2.36 5.297 5.293 5.29h71.774v.663zm0 0" fill="#e6e6e6" fill-opacity=".937"/><path d="M10.586 27.086a5.665 5.665 0 0 0-5.668 5.668v74.09a5.665 5.665 0 0 0 5.668 5.668H116.43a5.661 5.661 0 0 0 5.664-5.668V39.94H50.277a4.9 4.9 0 0 1-4.918-4.918v-7.937zm0 .75h34.023v7.187a5.662 5.662 0 0 0 5.668 5.668h71.067v66.153a4.896 4.896 0 0 1-4.914 4.918H10.586a4.9 4.9 0 0 1-4.918-4.918v-74.09a4.9 4.9 0 0 1 4.918-4.918zm0 0" fill="#212121"/><path d="M201.09-9.91A10.56 10.56 0 0 0 190.216.65v148.174c0 8.155 8.843 13.248 15.905 9.14l126.988-74.087c7-4.078 7-14.186 0-18.28L206.12-8.488a10.568 10.568 0 0 0-5.03-1.422zm0 0" transform="matrix(.25002 0 0 .25002 0 53.755)" fill="url(#h)" stroke-width="3" stroke-linecap="round" stroke-linejoin="round" stroke="#212121"/></svg>
